!!!COM: Schiørring, Niels
!!!CDT: 1743-1798
!!!OPR@@DA: Choral-Bog
!!!ONM: 92
!!!OTL@@DA: Søde Jeſu! vi er’ her
**kern	**fb	**kern	**kern	**kern	**kern	**kern	**kern	**kern
*part6	*part6	*part6	*part5	*part5	*part4	*part3	*part2	*part1
*staff8	*	*staff7	*staff6	*staff5	*staff4	*staff3	*staff2	*staff1
*clefF4	*	*clefC1	*clefF4	*clefC1	*clefF4	*clefC4	*clefC3	*clefC1
*mclefF4	*	*mclefG2	*mclefF4	*mclefG2	*mclefF4	*mclefGv2	*mclefG2	*mclefG2
*k[f#]	*	*k[f#]	*k[f#]	*k[f#]	*k[f#]	*k[f#]	*k[f#]	*k[f#]
*G:	*	*G:	*G:	*G:	*G:	*G:	*G:	*G:
*M4/4	*	*M4/4	*M4/4	*M4/4	*M4/4	*M4/4	*M4/4	*M4/4
*met(c)	*	*met(c)	*met(c)	*met(c)	*met(c)	*met(c)	*met(c)	*met(c)
*MM180	*	*MM180	*MM180	*MM180	*MM180	*MM180	*MM180	*MM180
*	*above	*	*	*	*	*	*	*
*	*slash	*	*	*	*	*	*	*
=1	=1	=1	=1	=1	=1	=1	=1	=1
*	*	*	*^	*^	*	*	*	*
2G	.	2b	2d	2G	2b	2g	2G	2B	2d	2b
2B	6	2g	2d	2B	2g	2g	2B	2d	2d	2g
=2	=2	=2	=2	=2	=2	=2	=2	=2	=2	=2
2F#	6	2a	1d	2F#	2a	2f#	2F#	2A	2d	2a
2D	.	2dd	.	2D	2dd	2a	2D	2A	2f#	2dd
=3	=3	=3	=3	=3	=3	=3	=3	=3	=3	=3
2G	.	2b	2.d	2G	2b	2g	2G	2G	2.d	2b
2E	7	2g	.	2E	2g	[2g	2E	[2G	.	2g
.	#6\	.	4c#X	.	.	.	.	.	4c#X	.
=4	=4	=4	=4	=4	=4	=4	=4	=4	=4	=4
1D	4	1a	1d	1D	1a	2g]	1D	2G]	1d	1a
.	3	.	.	.	.	2f#	.	2F#	.	.
=5	=5	=5	=5	=5	=5	=5	=5	=5	=5	=5
2E	.	2g	2B	2E	2g	2e	2E	2G	2B	2g
2D	4 n	2g	2B	2D	2g	2fn	2D	2B	2fn	2g
=6	=6	=6	=6	=6	=6	=6	=6	=6	=6	=6
2C	.	2g	2c	2C	2g	2e	2C	2c	2e	2g
2BB	6	2g	[2G	2BB	2g	2d	2BB	[2G	2d	2g
=7	=7	=7	=7	=7	=7	=7	=7	=7	=7	=7
2AA	7	2a	4G]	2AA	2a	2c	2AA	4G]	2c	2a
.	6	.	4F#	.	.	.	.	4F#	.	.
2GG	.	2b	[2G	2GG	2b	2d	2GG	[2G	2d	2b
=8	=8	=8	=8	=8	=8	=8	=8	=8	=8	=8
2C	6 5	1a	2G]	2C	1a	2e	(2C	(2G]	2e	1a
2D	.	.	2F#	2D	.	2d	2D)	2F#)	2d	.
=9	=9	=9	=9	=9	=9	=9	=9	=9	=9	=9
*	*	*	*	*	*	*^	*	*	*	*
1GG	.	1g	1G	1GG	1g	1d	1B\	1GG	1G	1B	1g
*	*	*	*	*	*	*v	*v	*	*	*	*
=10:|!	=10:|!	=10:|!	=10:|!	=10:|!	=10:|!	=10:|!	=10:|!	=10:|!	=10:|!	=10:|!
2G	.	2d	2G	2G	2d	2B	2G	2B	2B	2d
2F#	6	2d	2A	2F#	2d	[2d	2F#	2A	[2d	2d
=11	=11	=11	=11	=11	=11	=11	=11	=11	=11	=11
2E	7	2e	2G	2E	2e	4d]	2E	2G	(4d]	2e
.	#6\	.	.	.	.	4c#X	.	.	4c#X)	.
[2D	.	2f#	2A	[2D	2f#	2d	[2D	2A	2d	2f#
=12	=12	=12	=12	=12	=12	=12	=12	=12	=12	=12
2D]	2	2g	2B	2D]	2g	1e	2D]	2B	2e	2g
2C#X	6	2a	2A	2C#X	2a	.	2C#X	2A	2e	2a
=13	=13	=13	=13	=13	=13	=13	=13	=13	=13	=13
1D	.	2f#	2A	1D	2f#	2d	2D	2A	2d	2f#
.	.	2d	2F#	.	2d	2A	2D	2F#	2A	2d
=14	=14	=14	=14	=14	=14	=14	=14	=14	=14	=14
2E	.	2g	2B	2E	2g	2e	2E	2B	2e	2g
[2C	.	2g	2c	[2C	2g	2e	[2C	2c	2e	2g
=15	=15	=15	=15	=15	=15	=15	=15	=15	=15	=15
2C]	5 2	2g	2G	2C]	2g	2d	2C]	2d	2d	2g
2BB	6	2g	[2G	2BB	2g	2d	2BB	2d	[2g	2g
=16	=16	=16	=16	=16	=16	=16	=16	=16	=16	=16
2AA	7	2a	4G]	2AA	2a	2c	2AA	2c	(4g]	2a
.	6	.	4F#	.	.	.	.	.	4f#)	.
2GG	.	2b	[2G	2GG	2b	2d	2GG	2d	[2g	2b
=17	=17	=17	=17	=17	=17	=17	=17	=17	=17	=17
2C	6 5	1a	2G]	2C	1a	2e	(2C	(2e	(2g]	1a
2D	.	.	4F#	2D	.	2d	2D)	4d	2f#)	.
.	.	.	4c	.	.	.	.	4c)	.	.
=18	=18	=18	=18	=18	=18	=18	=18	=18	=18	=18
1GG	.	1g	1B>	1GG	1g	1d	1GG	1B	1g	1g
*	*	*	*v	*v	*	*	*	*	*	*
*	*	*	*	*v	*v	*	*	*	*
==	==	==	==	==	==	==	==	==
*-	*-	*-	*-	*-	*-	*-	*-	*-
!!!system-decoration: {(s1,s2,s3,s4)}{(s5,s6)}{(s7,s8)}
!!!RDF**kern: > = above
!!!RDF**kern: < = below
!!!AGN: chorale
!!!EED: Derek Remeš
!!!EED2: Victor Phan
!!!END: 2023/11/28
!!!ENC: Wolfgang Drescher
!!!EEV: 2023/12/12
!!!title: @{ONM}. @{OTL}
!!!verovio: mnumInterval 1